SF_Symbols/arrow.uturn.down.svg

<?xml version="1.0" encoding="UTF-8"?>
<svg xmlns="http://www.w3.org/2000/svg" xmlns:xlink="http://www.w3.org/1999/xlink" width="24" height="24" viewBox="0 0 24 24" version="1.1">
<g id="surface1">
<path style=" stroke:none;fill-rule:nonzero;fill:rgb(100%,100%,100%);fill-opacity:1;" d="M 15.457031 1.40625 C 13.964844 1.40625 12.648438 1.734375 11.507812 2.390625 C 10.375 3.046875 9.488281 4 8.847656 5.25 C 8.207031 6.492188 7.886719 8.007812 7.886719 9.796875 L 7.886719 17.71875 L 8.050781 21.351562 L 8.589844 21.140625 L 6.117188 18.246094 L 2.8125 14.871094 C 2.71875 14.777344 2.613281 14.707031 2.496094 14.660156 C 2.378906 14.605469 2.246094 14.578125 2.097656 14.578125 C 1.792969 14.578125 1.542969 14.675781 1.347656 14.871094 C 1.160156 15.058594 1.066406 15.308594 1.066406 15.621094 C 1.066406 15.910156 1.175781 16.164062 1.394531 16.382812 L 8.15625 23.273438 C 8.265625 23.390625 8.386719 23.476562 8.519531 23.53125 C 8.652344 23.585938 8.792969 23.613281 8.941406 23.613281 C 9.082031 23.613281 9.21875 23.585938 9.351562 23.53125 C 9.484375 23.476562 9.605469 23.390625 9.714844 23.273438 L 16.476562 16.382812 C 16.695312 16.164062 16.804688 15.910156 16.804688 15.621094 C 16.804688 15.308594 16.707031 15.058594 16.511719 14.871094 C 16.324219 14.675781 16.078125 14.578125 15.773438 14.578125 C 15.625 14.578125 15.492188 14.605469 15.375 14.660156 C 15.257812 14.707031 15.152344 14.777344 15.058594 14.871094 L 11.765625 18.246094 L 9.28125 21.140625 L 9.820312 21.351562 L 9.984375 17.71875 L 9.984375 9.609375 C 9.984375 8.28125 10.210938 7.164062 10.664062 6.257812 C 11.117188 5.34375 11.746094 4.65625 12.550781 4.195312 C 13.363281 3.734375 14.292969 3.503906 15.339844 3.503906 C 16.394531 3.503906 17.335938 3.734375 18.164062 4.195312 C 18.992188 4.65625 19.644531 5.34375 20.121094 6.257812 C 20.605469 7.164062 20.847656 8.28125 20.847656 9.609375 L 20.847656 12.304688 C 20.847656 12.632812 20.949219 12.894531 21.152344 13.089844 C 21.355469 13.277344 21.601562 13.371094 21.890625 13.371094 C 22.179688 13.371094 22.425781 13.273438 22.628906 13.078125 C 22.832031 12.882812 22.933594 12.625 22.933594 12.304688 L 22.933594 9.609375 C 22.933594 7.859375 22.621094 6.375 21.996094 5.15625 C 21.378906 3.929688 20.507812 3 19.382812 2.367188 C 18.265625 1.726562 16.957031 1.40625 15.457031 1.40625 Z M 15.457031 1.40625 "/>
</g>
</svg>

<svg xmlns="http://www.w3.org/2000/svg" width="24" height="24"><path style="stroke:none;fill-rule:nonzero;fill:#fff;fill-opacity:1" d="M15.457 1.406c-1.492 0-2.809.328-3.95.985C10.376 3.047 9.489 4 8.848 5.25c-.64 1.242-.96 2.758-.96 4.547v7.922l.164 3.633.539-.211-2.473-2.895-3.304-3.375a.918.918 0 0 0-.317-.21.934.934 0 0 0-.398-.083c-.305 0-.555.098-.75.293-.188.188-.282.438-.282.75 0 .29.11.543.329.762l6.761 6.89c.203.22.489.344.785.34.293 0 .575-.12.774-.34l6.762-6.89c.218-.219.328-.473.328-.762 0-.312-.098-.562-.293-.75-.188-.195-.434-.293-.739-.293a.934.934 0 0 0-.398.082.956.956 0 0 0-.316.211l-3.293 3.375-2.485 2.895.54.21.163-3.632v-8.11c0-1.328.227-2.445.68-3.351.453-.914 1.082-1.602 1.887-2.063.812-.46 1.742-.691 2.789-.691 1.055 0 1.996.23 2.824.691.828.461 1.48 1.149 1.957 2.063.484.906.727 2.023.727 3.351v2.696c0 .328.101.59.304.785.203.187.45.281.739.281s.535-.098.738-.293c.203-.195.305-.453.305-.773V9.609c0-1.75-.313-3.234-.938-4.453C21.38 3.93 20.508 3 19.383 2.367c-1.117-.64-2.426-.96-3.926-.96Zm0 0"/></svg>
